X:1
T:Mit Fried und Freud
T:Balthasar Resinarius
T:Source :  DDT 34---Leipzig---Breitkopf & Härtel---J.Wolf---1908 First print : Newe Deudsche Geistliche Gesenge---Wittemberg---G.Rhau---1544. Editor : André Vierendeels (02/08/17).
T:Mit Fried und Freud
T:©
T:©
T:©
T:©
C:Balthasar Resinarius
Z:©
%%score [ 1 2 3 4 ]
L:1/8
Q:1/4=120
M:2/2
K:F
V:1 treble nm="Soprano" snm="S"
V:2 treble nm="Alto" snm="A"
V:3 treble-8 nm="Tenor" snm="T"
V:4 bass nm="Bass" snm="B"
V:1
 z8 | z4 G4 | d4 d4 | c3 d e3 f | g8 | fedc B3 B | c2 A2 B4 | A2 d4 c2 | d8 | d4 c4 | f3 e c2 e2- | %11
w: |Mit|Fried und|Freud _ _ _|_|* * * * * ich|fahr _ da-|hin, [da- *|hin,]|in _|Got- * * *|
 ed d4 c2 | d4 z2 d2 | f4 e2 f2- | fedc d2 c2 | A3 G B2 A2- | AG G4 F2 | G4 d4- | d2 c2 B2 A2 | %19
w: * tes Wil- *|le, ge-|trost ist mir|_ _ _ _ _ mein|_ _ _ _|* * Herz uns|Sinn, sanft|_ _ _ und|
 G2 F2 G4 | A4 d4- | d2 c2 B2 A2 | B4 A4 | G2 F2 E4 | D4 d4- | d2 c2 B4- | B2 A2 B2 G2- | %27
w: stil- * *|le. Wie|_ mir Gott _|_ ver-|heis- * sen|hat, der|_ _ Tod|_ _ _ ist|
 G2 F2 G2 B2- | BABc d2 B2- | BA G4 F2 | G8- | G8 |] %32
w: _ _ mein Schlaf|_ _ _ _ _ wor-||den.|_|
V:2
 G,4 D4 | D4 C2 G2 | F6 ED | E6 C2 | D4 z2 G2 | A4 G3 G | E2 F2 D4- | D4 z2 A,2 | %8
w: Mit Fried|und Freud ich|fahr _ _|da- *|hin, ich|fahr _ da-|* * hin,|_ ich|
 A,2 B,2 B,2 A,G, | A,8 | z4 z2 A2- | A2 G2 A3 G | A2 B4 AG | A2 F2 G2 F2 | D4 z2 C2 | C4 D2 F2- | %16
w: fahr _ da- * *|hin,|in|_ Got- * tes|Wil- * * *||le, ge-|trost ist mir|
 FEDC D3 C | B,3 A, G,4 | z2 D2 D2 F2 |"^b""^b" D2 F2 EFGE | F4 F4- | F4 z2 F2- | F2 E2 F2 C2 | %23
w: _ _ _ _ _ mein|Herz und Sinn,|sanft und stil-||* le.|_ Wie|_ mir Gott _|
 z4 z2 C2 | F4 F4- | F2 F2 G4 | F2 F2 D4 | DCB,A, B,4- | B,4 z2 D2- | D2 C2 D4- |"^b" D2 E4 DC | %31
w: ver-|heis- sen|_ hat, der|_ Tod _|ist _ _ _ _|_ mein|_ _ Schlaf|_ wor- * *|
 D8 |] %32
w: den.|
V:3
 z8 | z8 | z8 | z8 | G8 | d4 d4 | c4 g4 | f4 e4 | d8 | f4 e4 | d4 c4 | d4 e4 | d8 | z4 z2 d2 | %14
w: ||||Mit|Fried und|Freud ich|fahr da-|hin,|in Got-|tes Wil-||le,|ge-|
 f6 e2 | f3 e d2 c2- | c2 B2 A4 | G8 | d6 c2 | B2 A2 G4 | F8 | d6 c2 | B4 f4 | e2 d4 c2 | d8 | %25
w: trost ist|mir _ _ mein|_ Herz und|Sinn,|sanft und|stil- * *|le.|Wie mir|Gott ver-|heis- * sen|hat,|
 z4 d4- | d2 c2 B4 | A4 G4 | B8 | G4 A4 | G8- | G8 |] %32
w: der|_ _ Tod|ist mein|Schlaf|wor- *|den.|_|
V:4
 z8 | z8 | z4 D,4 | A,4 A,4 | G,F,E,D, E,4 | D,3 E,/F,/ G,4 | A,2 F,2 G,4 | D,E,F,G, A,4 | %8
w: ||Mit|FRied und|Freud _ _ _ _|ich _ _ _|fahr _ da-|hin, _ _ _ _|
 D,2 G,4 F,E, | D,2 D,2 A,4 | B,4 C2 A,2 | B,4 A,4 | D,2 G,4 F,E, | D,2 D2 C2 D2- | DCB,A, B,2 C2 | %15
w: [ich fahr da _|hin,] in Got-|tes Wil- *|||le, ge- trost ist|_ _ _ _ _ _|
 F,4 z2 F,2- | F,2 G,2 D,4 | D3 C B,3 A, | G,4 z2 F,2 |"^b" G,2 D,2 E,2 C,2 |"^b" F,E,D,C, B,,4 | %21
w: mir mein|_ Herz und|Sinn, _ _ _|_ sanft|und stil- * *|* * * * le.|
 z2 B,3 A, F,2 | G,4 F,G,A,B, | C2 D2 A,4 |"^#" z2 B,2 B,4- | B,2 A,2 G,4 | z2 F,2 G,4 | %27
w: Wie _ mir|Gott ver- * * *|heis- sen hat,|ver- heis-|* sen hat,|derTod _|
 D,4 z2 G,2 | G,F,G,A, B,2 B,,2 | _E,4 D,4 | G,,2 C,4 B,,A,, | G,,8 |] %32
w: ist mein|Schlaf _ _ _ _ _|wor- *||den.|

